svgs/regular/forklift.svg

<svg xmlns="http://www.w3.org/2000/svg" viewBox="0 0 640 512"><!--! Font Awesome Pro 6.3.0 by @fontawesome - https://fontawesome.com License - https://fontawesome.com/license (Commercial License) Copyright 2023 Fonticons, Inc. --><path d="M80 160H96V40c0-22.1 17.9-40 40-40H293c16.6 0 31.5 10.3 37.4 25.8l83 218.9c1.7 4.5 2.6 9.3 2.6 14.2V272v72.4c19.6 17.6 32 43.1 32 71.6c0 53-43 96-96 96s-96-43-96-96H192c0 53-43 96-96 96s-96-43-96-96V368 240c0-44.2 35.8-80 80-80zm160 80H360.3L287.4 48H144V171.4L240 240zm0 48c-10 0-19.8-3.1-27.9-8.9L112.6 208H80c-17.7 0-32 14.3-32 32v92.8C62.1 324.7 78.5 320 96 320c35.5 0 66.6 19.3 83.2 48h89.7c16.6-28.7 47.6-48 83.2-48c5.5 0 10.8 .5 16 1.3V288H240zM96 464a48 48 0 1 0 0-96 48 48 0 1 0 0 96zm256 0a48 48 0 1 0 0-96 48 48 0 1 0 0 96zM528 24V400h88c13.3 0 24 10.7 24 24s-10.7 24-24 24H504c-13.3 0-24-10.7-24-24V24c0-13.3 10.7-24 24-24s24 10.7 24 24z"/></svg>

<svg xmlns="http://www.w3.org/2000/svg" viewBox="0 0 640 512"><!--! Font Awesome Pro 6.2.0 by @fontawesome - https://fontawesome.com License - https://fontawesome.com/license (Commercial License) Copyright 2022 Fonticons, Inc. --><path d="M80 160H96V40C96 17.91 113.9 0 136 0H292.1C309.6 0 324.5 10.28 330.4 25.81L413.4 244.7C415.1 249.3 416 254.1 416 258.9V344.4C435.6 362 448 387.6 448 416C448 469 405 512 352 512C298.1 512 256 469 256 416H192C192 469 149 512 96 512C42.98 512 0 469 0 416V240C0 195.8 35.82 160 80 160zM360.3 240L287.4 48H144V171.4L240 240H360.3zM212.1 279.1L112.6 208H80C62.33 208 48 222.3 48 240V332.8C62.12 324.7 78.51 320 96 320C131.5 320 162.6 339.3 179.2 368H268.8C285.4 339.3 316.5 320 352 320C357.5 320 362.8 320.5 368 321.3V288H239.1C229.1 288 220.2 284.9 212.1 279.1H212.1zM96 464C122.5 464 144 442.5 144 416C144 389.5 122.5 368 96 368C69.49 368 48 389.5 48 416C48 442.5 69.49 464 96 464zM352 464C378.5 464 400 442.5 400 416C400 389.5 378.5 368 352 368C325.5 368 304 389.5 304 416C304 442.5 325.5 464 352 464zM528 400H616C629.3 400 640 410.7 640 424C640 437.3 629.3 448 616 448H504C490.7 448 480 437.3 480 424V24C480 10.75 490.7 0 504 0C517.3 0 528 10.75 528 24V400z"/></svg>
